X: 31224
T: Paddy Fahey's
R: reel
M: 4/4
K: Ddorian
|:D2DE FEFG|AdcA d2ff|fedf edcA|AdAG FDEC|
D2DE FEFG|AdcA d2ff|fedf edcA|AdAG FDEC:|
K: D
|:Ad~d2 ^fded|=c2Bc AcGc|Ad~d2 ^fded|=cAcd edd2|
a2^ga Ad=cA|d=cAG FDEC|D2DE FEFG|Ad=cA d4:|

